flaticon/essential/user-1.svg

<svg xmlns="http://www.w3.org/2000/svg" width="32" height="32" viewBox="0 0 24 24">
    <path d="M 12 24 C 8.816406 24 2.800781 23.5 2.800781 21.601562 L 2.800781 20.703125 C 2.800781 19.382812 3.519531 18.167969 4.679688 17.535156 L 8.386719 15.390625 C 8.410156 15.378906 8.480469 15.335938 8.660156 15.199219 L 5.714844 15.199219 C 5.546875 15.214844 4.699219 15.273438 3.980469 14.84375 C 3.691406 14.671875 3.492188 14.394531 3.410156 14.066406 C 3.328125 13.734375 3.378906 13.375 3.558594 13.085938 C 4.234375 11.972656 5.824219 9.058594 6.023438 6.015625 C 6.09375 4.976562 6.289062 4.109375 6.621094 3.371094 C 7.308594 1.847656 8.773438 0.0234375 11.867188 0 C 17.148438 0.0429688 17.324219 5.394531 17.324219 5.445312 C 17.386719 8.636719 19.359375 11.773438 20.203125 12.976562 C 20.425781 13.296875 20.492188 13.695312 20.386719 14.070312 C 20.28125 14.445312 20.015625 14.746094 19.664062 14.898438 C 18.703125 15.3125 17.5 15.203125 17.449219 15.199219 L 14.382812 15.199219 C 14.515625 15.402344 14.660156 15.578125 14.792969 15.644531 L 19.1875 17.546875 C 20.4375 18.171875 21.199219 19.40625 21.199219 20.78125 L 21.199219 21.601562 C 21.199219 23.5 15.183594 24 12 24 Z M 5.691406 14.398438 L 8.871094 14.398438 C 9.1875 14.398438 9.457031 14.59375 9.558594 14.890625 C 9.660156 15.1875 9.570312 15.503906 9.324219 15.699219 C 8.984375 15.964844 8.847656 16.050781 8.777344 16.089844 L 5.074219 18.234375 C 4.160156 18.730469 3.601562 19.675781 3.601562 20.703125 L 3.601562 21.601562 C 3.601562 22.144531 6.566406 23.199219 12 23.199219 C 17.433594 23.199219 20.398438 22.144531 20.398438 21.601562 L 20.398438 20.78125 C 20.398438 19.710938 19.804688 18.75 18.847656 18.269531 L 14.457031 16.371094 C 14.0625 16.171875 13.820312 15.804688 13.679688 15.523438 C 13.5625 15.28125 13.574219 15 13.71875 14.769531 C 13.859375 14.539062 14.109375 14.398438 14.382812 14.398438 L 17.488281 14.398438 C 17.535156 14.402344 18.578125 14.496094 19.347656 14.164062 C 19.480469 14.109375 19.578125 13.996094 19.617188 13.855469 C 19.660156 13.710938 19.632812 13.558594 19.546875 13.4375 C 18.664062 12.175781 16.59375 8.871094 16.527344 5.464844 C 16.523438 5.277344 16.359375 0.835938 11.867188 0.800781 C 9.203125 0.820312 7.941406 2.386719 7.351562 3.699219 C 7.058594 4.351562 6.886719 5.125 6.824219 6.066406 C 6.609375 9.289062 4.949219 12.339844 4.242188 13.5 C 4.175781 13.609375 4.152344 13.746094 4.183594 13.875 C 4.214844 13.996094 4.289062 14.09375 4.390625 14.15625 C 4.9375 14.480469 5.636719 14.402344 5.644531 14.402344 Z M 5.691406 14.398438"/>
</svg>

<svg xmlns="http://www.w3.org/2000/svg" width="32" height="32" viewBox="0 0 24 24">
    <path d="M12 24c-3.184 0-9.2-.5-9.2-2.398v-.899c0-1.32.72-2.535 1.88-3.168l3.707-2.144a2.32 2.32 0 0 0 .273-.192H5.715c-.168.016-1.016.074-1.735-.355a1.243 1.243 0 0 1-.57-.778 1.286 1.286 0 0 1 .149-.98c.675-1.113 2.265-4.027 2.464-7.07.07-1.04.266-1.907.598-2.645C7.31 1.848 8.773.023 11.867 0c5.281.043 5.457 5.395 5.457 5.445.063 3.192 2.035 6.328 2.88 7.532.222.32.288.718.183 1.093a1.276 1.276 0 0 1-.723.828c-.96.415-2.164.305-2.215.301h-3.066c.133.203.277.38.41.446l4.395 1.902a3.591 3.591 0 0 1 2.011 3.234v.82C21.2 23.5 15.184 24 12 24zm-6.309-9.602h3.18c.316 0 .586.196.688.493a.72.72 0 0 1-.235.808c-.34.266-.476.352-.547.39l-3.703 2.145a2.804 2.804 0 0 0-1.472 2.47v.898c0 .543 2.964 1.597 8.398 1.597 5.434 0 8.398-1.054 8.398-1.597v-.82c0-1.071-.593-2.032-1.55-2.512l-4.391-1.899c-.395-.2-.637-.566-.777-.848a.774.774 0 0 1 .039-.753c.14-.23.39-.372.664-.372h3.105c.047.004 1.09.098 1.86-.234a.464.464 0 0 0 .27-.309.482.482 0 0 0-.071-.418c-.883-1.261-2.953-4.566-3.02-7.972-.004-.188-.168-4.63-4.66-4.664-2.664.02-3.926 1.586-4.515 2.898-.293.653-.465 1.426-.528 2.367C6.61 9.29 4.95 12.34 4.242 13.5a.501.501 0 0 0-.058.375.462.462 0 0 0 .207.281c.546.324 1.246.246 1.254.246zm0 0"/>
</svg>
